X:1
T:Title
%%score { ( 1 3 4 ) | ( 2 5 6 ) }
L:1/8
M:4/4
K:D
V:1 treble nm="Grand Piano"
V:3 treble 
V:4 treble 
V:2 bass 
V:5 bass 
V:6 bass 
V:1
 z4 z2[Q:1/4=100] [DF]>[EG] | [FA]>[FA] [FA]>[GB] [FA]2 [DF]2 | %2
 [Fd]>[Fd] [Fd]>[Fc] [GB]2 [Ac]>[GB] | [FA]3 [GB] [FA]2 [DF]2 | [CE]6 [DF]>[EG] | %5
 [FA]>[FA] [FA]>[GB] [FA]2 [DF]2 | [Fd]>[Fd] [Ad]>[Ac] B2 c>B | A3 d d2 [Gc]2 |[M:3/4] [Fd]6 | %9
[M:1/4] d>c |[M:4/4] B6 z2 | z2 [FA]2 z4 | G6 z2 | [DF]2 [DF]2 z4 | B6 z2 | %15
 [FA]2 z z/ D/ [DFA]2 d>d | e6 z2 |[M:3/4] d6 |] %18
V:2
 z4 z2 [D,A,]>[D,A,] | [D,D]>[D,D] [D,D]>[D,D] [D,D]2 [D,A,]2 | %2
 [D,A,]>[D,A,] [D,A,]>[D,D] [G,D]2 [G,D]>[G,D] | [D,D]3 [D,D] [D,D]2 [D,A,]2 | %4
 [A,,A,]6 [D,A,]>[D,A,] | [D,D]>[D,D] [D,D]>[D,D] [D,D]2 [D,A,]2 | %6
 [D,A,]>[D,A,] [F,D]>[F,D][K:treble] [G,DG]2 [^G,D=F]>[G,DF] | %7
 [A,DF]3 [A,DF][K:bass] [A,E]2 [A,,A,]2 |[M:3/4] [D,A,]6 |[M:1/4][K:treble] F>A | %10
[M:4/4] G6[K:bass] z2 | [D,D]>[D,D] [D,D]>D, D,2[K:treble] G>F | E6[K:bass] z2 | %13
 D,>D, D,>D, [D,A,D]2[K:treble] F>A | G6[K:bass] z2 | [D,D]>[D,D] [D,D]>D, D,2[K:treble] F>F | %16
 G6 z2 |[M:3/4][K:bass] D,->[D,-=C] [D,-B,][D,-^A,] [D,=A,]2 |] %18
V:3
 x8 | x8 | x8 | x8 | x8 | x8 | x8 | x8 |[M:3/4] x6 |[M:1/4] x2 |[M:4/4] z2 D>D z z/ d/ [Ac]>[GB] | %11
 [FA]2 z z/ D/ [DFA]2 B>A | z2 C>C z z/ B/ [CA]>E | A,>A, A,>A, F2 d>c | z2 D>D z z/ d/ [Ac]>[GB] | %15
 z2 [FA]2 z4 | z2 B,>B, B,>e c>A |[M:3/4] F>A ^G=G F2 |] %18
V:4
 x8 | x8 | x8 | x8 | x8 | x8 | x8 | x8 |[M:3/4] x6 |[M:1/4] x2 |[M:4/4] z4 D2 z2 | x8 | z4 C2 z2 | %13
 x8 | z4 D2 z2 | x8 | x8 |[M:3/4] x6 |] %18
V:5
 x8 | x8 | x8 | x8 | x8 | x8 | x4[K:treble] x4 | x4[K:bass] x4 |[M:3/4] x6 |[M:1/4][K:treble] x2 | %10
[M:4/4] z2 G,>G, z z/ B/[K:bass] [G,D]2 | x6[K:treble] x2 | z2 A,>A, z z/ G/[K:bass] z z/ C/ | %13
 x6[K:treble] x2 | z2 G,>G, z z/ B/[K:bass] [G,D]2 | x6[K:treble] x2 | %16
 z2 G,>G, G,>[G,EG] [A,EG]>[A,CG] |[M:3/4][K:bass] A,2 z2 z2 |] %18
V:6
 x8 | x8 | x8 | x8 | x8 | x8 | x4[K:treble] x4 | x4[K:bass] x4 |[M:3/4] x6 |[M:1/4][K:treble] x2 | %10
[M:4/4] z4 G,2[K:bass] z2 | x6[K:treble] x2 | z4 A,2[K:bass] A,2 | x6[K:treble] x2 | %14
 z4 G,2[K:bass] z2 | x6[K:treble] x2 | x8 |[M:3/4][K:bass] x6 |] %18

